X: 15
T: Picking-Hand Technique Practice
C: Marla Fibish
A: PegHeadNation.com - Irish Mandolin
M: 4/4
L: 1/8
K: D
|vDuDvAuD vDuDvAuD | vEuEvAuE vEuEvAuE | vFuFvAuF vFuFvAuF| vGuGvAuG vGuGvAuG |
|vAuAveuA vAuAveuA | vBuBveuB vBuBveuB | vcucveuc vcucveuc| vdudveud vdudveud |
|vcucveuc vcucveuc | vBuBveuB vBuBveuB | vAuAveuA vAuAveuA | vGuGvAuG vGuGvAuG |
|vFuFvAuF vFuFvAuF | vEuEvAuE vEuEvAuE | vDuDvAuD vDuDvAuD |

